X:1
T: Farnicle Huggy
N:
C:
S:
A:
O:
R:
M:3/4
K:G
I:speed 150
%W: A1
% voice 1 (1 lines, 38 notes)
K:G
M:3/4
L:1/16
d6 e2 d2 B2 |G2 B2 d2 B2 G2 B2 |c6 e2 d2 e2 |c2 e2 B2 d2 A4 |d6 e2 d2 B2 |G2 B2 d2 B2 c2 e2 |d2 f2 d2 e2 f2 c2 |G6 A2 B4 |
%W: A2
% voice 1 (1 lines, 38 notes)
d6 e2 d2 B2 |G2 B2 d2 B2 G2 B2 |c6 e2 d2 e2 |c2 e2 B2 d2 A4 |d6 e2 d2 B2 |G2 B2 d2 B2 c2 e2 |d2 f2 c2 d2 e2 c2 |G6 A2 B4 |
%W: B1
% voice 1 (1 lines, 49 notes)
g6 g2 g f e d |c2 e2 g2 e2 c2 e2 |a6 b2 a g f e |d2 f2 a2 f2 d2 f2 |g6 a2 g f e d |c2 g2 d2 g2 c2 g2 |B2 g2 d e d c B c B A |G6 A2 B4 |
%W: B2
